static/images/stackbit.svg

<svg width="202" height="31" viewBox="0 0 202 31" xmlns="http://www.w3.org/2000/svg"><g fill="#2C343C" fill-rule="nonzero"><path d="M.09 15.66v-3.18c0-1.38.63-2.43 1.8-3.09C6 7.02 10.11 4.71 14.22 2.37c.96-.54 1.92-1.11 2.91-1.65 1.26-.69 2.49-.69 3.75.03 3.24 1.86 6.45 3.72 9.69 5.58 1.77 1.02 3.54 2.04 5.31 3.09 1.14.69 1.74 1.74 1.74 3.09v6.33c0 1.5-.75 2.55-2.04 3.27-2.67 1.47-5.34 2.97-8.01 4.47-2.25 1.26-4.53 2.55-6.78 3.78-1.23.69-2.46.57-3.69-.09-2.97-1.62-5.94-3.24-8.88-4.86-2.1-1.14-4.2-2.28-6.27-3.45-1.2-.69-1.8-1.74-1.8-3.12-.06-1.08-.06-2.13-.06-3.18zm5.97-3.15c.45-.24.87-.48 1.29-.72 2.01-1.14 4.02-2.28 6.06-3.42 1.8-1.02 3.6-2.04 5.37-3.06.18-.12.33-.12.51 0 1.11.63 2.19 1.26 3.3 1.92 2.25 1.32 4.53 2.61 6.78 3.93 1.35.78 2.73 1.56 4.08 2.37.18.12.39.18.6.18.51-.03.99-.39 1.08-.87.12-.54-.09-1.02-.57-1.29-1.32-.78-2.67-1.53-3.99-2.31l-6.21-3.6c-1.59-.93-3.18-1.83-4.74-2.76-.39-.21-.78-.24-1.17 0-.3.18-.6.33-.9.51-2.46 1.35-4.89 2.73-7.35 4.11l-7.02 3.96c-.42.24-.66.6-.63 1.08.03.45.27.78.66.99l1.89 1.08c1.89 1.08 3.78 2.13 5.67 3.21l5.4 3.06 2.25 1.26c.51.3 1.14.15 1.47-.3.42-.6.27-1.32-.39-1.71-1.92-1.08-3.84-2.19-5.76-3.27-2.13-1.2-4.23-2.4-6.36-3.6-.42-.24-.87-.48-1.32-.75zm12.96 15.84c.21.03.42-.06.6-.15 1.32-.75 2.64-1.47 3.96-2.22 1.44-.81 2.91-1.62 4.35-2.43 1.44-.81 2.85-1.59 4.29-2.4.78-.42 1.56-.87 2.34-1.29.57-.33.78-1.02.45-1.56-.33-.57-.99-.78-1.56-.45-2.1 1.17-4.23 2.34-6.33 3.54-2.64 1.47-5.31 2.97-7.95 4.44-.12.06-.21.06-.33 0-1.41-.78-2.82-1.53-4.2-2.31-3.48-1.92-6.96-3.81-10.44-5.7a1.1 1.1 0 00-.87-.09c-.48.12-.75.45-.84.93-.09.51.15.93.6 1.2L10.65 24c2.58 1.41 5.13 2.82 7.71 4.23.21.06.42.12.66.12zM49.92 17.55c-1.35-.33-2.64-.9-3.81-1.65a7.33 7.33 0 01-3.21-5.97c-.15-1.98.51-3.93 1.83-5.4a8.594 8.594 0 015.85-2.61c3.66 0 5.7 1.41 7.53 2.64l.84.57-2.61 4.5-.9-.6c-1.62-1.08-2.67-1.8-4.83-1.8-.33 0-1.59.27-2.22.99-.21.24-.48.63-.42 1.5.03 1.35.93 2.13 3.24 2.73.3.06.51.15.72.24 2.4.87 4.26 2.04 5.55 3.51 1.26 1.41 1.95 3.27 1.98 5.16a8.29 8.29 0 01-2.01 5.25c-1.41 1.74-3.54 2.73-5.79 2.73-1.5.03-2.97-.21-4.41-.63a13.81 13.81 0 01-6-4.02l3.66-3.63a8.481 8.481 0 006.75 3c2.07 0 2.76-2.01 2.76-2.67 0-1.44-1.53-2.76-4.17-3.69l-.12-.03-.21-.12zM81.03 2.28v5.28h-6.96V28.8h-5.01V7.59h-6.99V2.28h18.96zM98.34 23.88H87.93l-2.34 4.92h-5.64L92.76 2.31h1.47l11.88 26.49h-5.55l-2.22-4.92zM96 18.6l-2.61-5.91-2.85 5.91H96zM124.74 8.73c-4.86-3.33-12.21-.24-12.21 6.87 0 7.44 7.77 10.44 12.51 6.66l3.24 3.9a12.703 12.703 0 01-8.31 3.18c-7.17 0-13.02-6.15-13.02-13.71 0-7.56 5.85-13.74 13.02-13.74 2.94.03 5.76 1.05 8.04 2.91l-3.27 3.93zm14.1 7.92l-1.95 2.07v10.02h-5.01V2.28h5.01v8.55l7.35-8.55h6.78l-8.79 10.35 9 16.11h-6l-6.39-12.09zM162.6 24.27a3.124 3.124 0 003.09-3.18 3.15 3.15 0 00-3.09-3.21h-8.22V2.28h6.84c4.05 0 7.35 3.48 7.35 7.74 0 1.56-.45 3.06-1.29 4.35 1.89 1.56 3 3.9 2.97 6.36 0 4.47-3.42 8.01-7.59 8.01h-1.8v-4.5l1.74.03zm-1.59-11.52a3.003 3.003 0 002.91-3.06 2.945 2.945 0 00-2.88-3h-2.19v6.06h2.16zM174.63 28.74V2.28h5.01v26.46h-5.01zm27.21-26.46v5.28h-6.96V28.8h-5.01V7.59h-6.99V2.28h18.96z"/><path d="M159.03 28.77h-4.65v-4.5h4.65z"/></g></svg>

<?xml version="1.0" encoding="UTF-8"?>
<svg width="202px" height="31px" viewBox="0 0 202 31" version="1.1" xmlns="http://www.w3.org/2000/svg" xmlns:xlink="http://www.w3.org/1999/xlink">
    <title>stackbit</title>
    <g id="Page-1" stroke="none" stroke-width="1" fill="none" fill-rule="evenodd">
        <g id="stackbit" fill="#2C343C" fill-rule="nonzero">
            <path d="M0.09,15.66 L0.09,12.48 C0.09,11.1 0.72,10.05 1.89,9.39 C6,7.02 10.11,4.71 14.22,2.37 C15.18,1.83 16.14,1.26 17.13,0.72 C18.39,0.03 19.62,0.03 20.88,0.75 C24.12,2.61 27.33,4.47 30.57,6.33 C32.34,7.35 34.11,8.37 35.88,9.42 C37.02,10.11 37.62,11.16 37.62,12.51 L37.62,18.84 C37.62,20.34 36.87,21.39 35.58,22.11 C32.91,23.58 30.24,25.08 27.57,26.58 C25.32,27.84 23.04,29.13 20.79,30.36 C19.56,31.05 18.33,30.93 17.1,30.27 C14.13,28.65 11.16,27.03 8.22,25.41 C6.12,24.27 4.02,23.13 1.95,21.96 C0.75,21.27 0.15,20.22 0.15,18.84 C0.09,17.76 0.09,16.71 0.09,15.66 Z M6.06,12.51 C6.51,12.27 6.93,12.03 7.35,11.79 C9.36,10.65 11.37,9.51 13.41,8.37 C15.21,7.35 17.01,6.33 18.78,5.31 C18.96,5.19 19.11,5.19 19.29,5.31 C20.4,5.94 21.48,6.57 22.59,7.23 C24.84,8.55 27.12,9.84 29.37,11.16 C30.72,11.94 32.1,12.72 33.45,13.53 C33.63,13.65 33.84,13.71 34.05,13.71 C34.56,13.68 35.04,13.32 35.13,12.84 C35.25,12.3 35.04,11.82 34.56,11.55 C33.24,10.77 31.89,10.02 30.57,9.24 L24.36,5.64 C22.77,4.71 21.18,3.81 19.62,2.88 C19.23,2.67 18.84,2.64 18.45,2.88 C18.15,3.06 17.85,3.21 17.55,3.39 C15.09,4.74 12.66,6.12 10.2,7.5 L3.18,11.46 C2.76,11.7 2.52,12.06 2.55,12.54 C2.58,12.99 2.82,13.32 3.21,13.53 L5.1,14.61 C6.99,15.69 8.88,16.74 10.77,17.82 L16.17,20.88 L18.42,22.14 C18.93,22.44 19.56,22.29 19.89,21.84 C20.31,21.24 20.16,20.52 19.5,20.13 C17.58,19.05 15.66,17.94 13.74,16.86 C11.61,15.66 9.51,14.46 7.38,13.26 C6.96,13.02 6.51,12.78 6.06,12.51 Z M19.02,28.35 C19.23,28.38 19.44,28.29 19.62,28.2 C20.94,27.45 22.26,26.73 23.58,25.98 C25.02,25.17 26.49,24.36 27.93,23.55 C29.37,22.74 30.78,21.96 32.22,21.15 C33,20.73 33.78,20.28 34.56,19.86 C35.13,19.53 35.34,18.84 35.01,18.3 C34.68,17.73 34.02,17.52 33.45,17.85 C31.35,19.02 29.22,20.19 27.12,21.39 C24.48,22.86 21.81,24.36 19.17,25.83 C19.05,25.89 18.96,25.89 18.84,25.83 C17.43,25.05 16.02,24.3 14.64,23.52 C11.16,21.6 7.68,19.71 4.2,17.82 C3.93,17.67 3.63,17.64 3.33,17.73 C2.85,17.85 2.58,18.18 2.49,18.66 C2.4,19.17 2.64,19.59 3.09,19.86 L10.65,24 C13.23,25.41 15.78,26.82 18.36,28.23 C18.57,28.29 18.78,28.35 19.02,28.35 Z" id="Shape"></path>
            <path d="M49.92,17.55 C48.57,17.22 47.28,16.65 46.11,15.9 C44.13,14.55 42.93,12.33 42.9,9.93 C42.75,7.95 43.41,6 44.73,4.53 C46.26,2.94 48.36,2.01 50.58,1.92 C54.24,1.92 56.28,3.33 58.11,4.56 L58.95,5.13 L56.34,9.63 L55.44,9.03 C53.82,7.95 52.77,7.23 50.61,7.23 C50.28,7.23 49.02,7.5 48.39,8.22 C48.18,8.46 47.91,8.85 47.97,9.72 C48,11.07 48.9,11.85 51.21,12.45 C51.51,12.51 51.72,12.6 51.93,12.69 C54.33,13.56 56.19,14.73 57.48,16.2 C58.74,17.61 59.43,19.47 59.46,21.36 C59.43,23.28 58.71,25.14 57.45,26.61 C56.04,28.35 53.91,29.34 51.66,29.34 C50.16,29.37 48.69,29.13 47.25,28.71 C44.94,27.93 42.87,26.55 41.25,24.69 L44.91,21.06 C46.59,23.04 49.08,24.15 51.66,24.06 C53.73,24.06 54.42,22.05 54.42,21.39 C54.42,19.95 52.89,18.63 50.25,17.7 L50.13,17.67 L49.92,17.55 L49.92,17.55 Z M81.03,2.28 L81.03,7.56 L74.07,7.56 L74.07,28.8 L69.06,28.8 L69.06,7.59 L62.07,7.59 L62.07,2.28 L81.03,2.28 Z" id="Shape"></path>
            <path d="M98.34,23.88 L87.93,23.88 L85.59,28.8 L79.95,28.8 L92.76,2.31 L94.23,2.31 L106.11,28.8 L100.56,28.8 L98.34,23.88 Z M96,18.6 L93.39,12.69 L90.54,18.6 L96,18.6 Z" id="Shape"></path>
            <path d="M124.74,8.73 C119.88,5.4 112.53,8.49 112.53,15.6 C112.53,23.04 120.3,26.04 125.04,22.26 L128.28,26.16 C125.97,28.2 123.03,29.31 119.97,29.34 C112.8,29.34 106.95,23.19 106.95,15.63 C106.95,8.07 112.8,1.89 119.97,1.89 C122.91,1.92 125.73,2.94 128.01,4.8 L124.74,8.73 L124.74,8.73 Z M138.84,16.65 L136.89,18.72 L136.89,28.74 L131.88,28.74 L131.88,2.28 L136.89,2.28 L136.89,10.83 L144.24,2.28 L151.02,2.28 L142.23,12.63 L151.23,28.74 L145.23,28.74 L138.84,16.65 Z" id="Shape"></path>
            <path d="M162.6,24.27 C164.34,24.24 165.72,22.83 165.69,21.09 C165.72,19.35 164.34,17.91 162.6,17.88 L154.38,17.88 L154.38,2.28 L161.22,2.28 C165.27,2.28 168.57,5.76 168.57,10.02 C168.57,11.58 168.12,13.08 167.28,14.37 C169.17,15.93 170.28,18.27 170.25,20.73 C170.25,25.2 166.83,28.74 162.66,28.74 L160.86,28.74 L160.86,24.24 L162.6,24.27 Z M161.01,12.75 C162.66,12.69 163.95,11.34 163.92,9.69 C163.95,8.07 162.66,6.72 161.04,6.69 L158.85,6.69 L158.85,12.75 L161.01,12.75 L161.01,12.75 Z" id="Shape"></path>
            <path d="M174.63,28.74 L174.63,2.28 L179.64,2.28 L179.64,28.74 L174.63,28.74 Z M201.84,2.28 L201.84,7.56 L194.88,7.56 L194.88,28.8 L189.87,28.8 L189.87,7.59 L182.88,7.59 L182.88,2.28 L201.84,2.28 Z" id="Shape"></path>
            <polygon id="Path" points="159.03 28.77 154.38 28.77 154.38 24.27 159.03 24.27"></polygon>
        </g>
    </g>
</svg>
